X: 4975
T: Brenda's Favorite
R: reel
M: 4/4
K: Ddorian
|:A,|D2 AD cDAD|EDCA, CDEG|Adde fged|cAGE CDEC|
D2 AD cDAD|EDCA, CDEG|Adde fged|cAGE D3:|
|:A|d2 FA defg|ecgc acgc|d2 FA defe|dcAG EDD2|
d2 FA defg|ecgc acgc|1 eaa^f gfed|cAGE D3:|2 a_bga fged|cAGE D4||

